packages/assets/static/images/icons/bluesky-logo.svg

<svg width="24" height="24" viewBox="0 0 24 24" xmlns="http://www.w3.org/2000/svg" fill="currentColor" aria-hidden="true"> <path d="M8.19163 22.9613C7.79001 22.9613 7.41808 22.8869 7.09531 22.783C7.06563 22.7735 7.03687 22.763 7.00905 22.7515C4.31369 21.6284 2.66179 19.4175 2.89738 17.2486C2.95025 16.7595 3.15244 15.9129 3.87498 15.1235C3.64588 14.9919 3.42792 14.8403 3.22201 14.6697C1.22785 13.0155 0.800268 9.89412 0.650938 7.36001C0.563752 5.87749 0.675053 4.74105 0.991336 3.88491C1.4588 2.61881 2.29078 2.19169 2.90572 2.05631C4.45282 1.71499 6.44512 2.81425 8.82326 5.32357C10.0606 6.62876 11.2218 8.15609 12 9.46319C12.7782 8.15609 13.9394 6.62876 15.1767 5.32357C17.5549 2.81425 19.5463 1.71499 21.0943 2.05631C21.7092 2.19169 22.5403 2.61881 23.0087 3.88491C23.3249 4.74105 23.4362 5.87845 23.3491 7.36001C23.1997 9.89412 22.7721 13.0155 20.778 14.6697C20.5721 14.8403 20.3541 14.9919 20.125 15.1235C20.8476 15.9119 21.0498 16.7595 21.1026 17.2486C21.3382 19.4175 19.6863 21.6284 16.991 22.7515C16.9622 22.763 16.9334 22.7744 16.9047 22.783C15.7759 23.1443 14.0721 23.0213 12.3627 20.3795C12.2476 20.2022 12.1391 20.0229 12.038 19.8456C11.7533 20.4062 11.4166 20.9735 11.015 21.4606C10.0652 22.6123 9.05978 22.9603 8.19255 22.9603L8.19163 22.9613ZM7.79836 20.6112C8.81584 20.9105 9.55229 20.0887 10.6922 17.3983C10.8044 17.1332 10.9111 16.8825 11.0131 16.6632C11.207 16.2466 11.6271 15.9901 12.0751 16.0139C12.524 16.0378 12.9145 16.3371 13.0657 16.7719C13.5378 18.1228 14.9745 20.9382 16.2044 20.6093C18.1012 19.8018 18.9916 18.4394 18.8896 17.5022C18.7931 16.6165 17.8081 15.9529 16.1868 15.6793C15.5821 15.5773 15.1712 14.9929 15.2676 14.3712C15.3641 13.7496 15.9317 13.3235 16.5365 13.4198C17.7812 13.6162 18.7115 13.4426 19.3793 12.8887C20.7112 11.7847 21.0145 9.12569 21.1267 7.22177C21.2612 4.93936 20.8123 4.33395 20.6277 4.29296C20.2373 4.20715 18.9276 4.64476 16.7711 6.91955C15.0089 8.77866 13.6667 10.8456 13.2976 11.8467C13.279 11.8962 13.2577 11.9449 13.2327 11.9916C12.9999 12.4282 12.5389 12.6895 12 12.6895C11.4611 12.6895 11.0001 12.4282 10.7673 11.9916C10.7423 11.9449 10.721 11.8962 10.7024 11.8467C10.3342 10.8456 8.99114 8.77866 7.22887 6.91955C5.07333 4.64571 3.7646 4.2062 3.37226 4.29296C3.18769 4.33395 2.73784 4.93936 2.87326 7.22177C2.98549 9.12569 3.28879 11.7847 4.6207 12.8887C5.28944 13.4426 6.2188 13.6162 7.46353 13.4198C8.0692 13.3235 8.63591 13.7496 8.73237 14.3712C8.82883 14.9929 8.41794 15.5782 7.8132 15.6793C6.19191 15.9529 5.20689 16.6165 5.11043 17.5022C5.0084 18.4403 5.89974 19.8037 7.79929 20.6112H7.79836Z"/> </svg>

<svg viewBox="0 0 24 24" xmlns="http://www.w3.org/2000/svg" aria-hidden="true" fill="currentColor"><path d="M8.192 22.961a3.6 3.6 0 0 1-1.183-.21c-2.695-1.123-4.347-3.334-4.112-5.502.053-.49.255-1.336.978-2.125a4.7 4.7 0 0 1-.653-.454C1.228 13.015.8 9.894.651 7.36.564 5.877.675 4.741.99 3.885c.468-1.266 1.3-1.693 1.915-1.829 1.547-.341 3.54.758 5.917 3.268 1.238 1.305 2.399 2.832 3.177 4.14.778-1.308 1.94-2.835 3.177-4.14 2.378-2.51 4.37-3.609 5.917-3.268.615.136 1.446.563 1.915 1.829.316.856.427 1.993.34 3.475-.15 2.534-.577 5.655-2.571 7.31q-.31.255-.653.454c.723.788.925 1.635.978 2.125.235 2.169-1.417 4.38-4.112 5.503l-.086.031c-1.13.361-2.833.238-4.542-2.404a11 11 0 0 1-.325-.533c-.285.56-.621 1.128-1.023 1.615-.95 1.151-1.955 1.5-2.822 1.5zm-.394-2.35c1.018.3 1.754-.522 2.894-3.213.112-.265.22-.515.321-.735a1.11 1.11 0 0 1 1.062-.65c.449.025.84.324.99.759.473 1.35 1.91 4.166 3.14 3.837 1.896-.807 2.787-2.17 2.685-3.107-.097-.886-1.082-1.55-2.703-1.823-.605-.102-1.016-.686-.92-1.308.097-.621.665-1.048 1.27-.951 1.244.196 2.175.023 2.842-.531 1.332-1.104 1.636-3.763 1.748-5.667.134-2.283-.315-2.888-.5-2.929-.39-.086-1.7.352-3.856 2.627-1.762 1.859-3.104 3.926-3.473 4.927q-.028.075-.065.145c-.233.436-.694.697-1.233.697s-1-.26-1.233-.697a1 1 0 0 1-.065-.145c-.368-1.001-1.71-3.068-3.473-4.927-2.156-2.274-3.464-2.714-3.857-2.627-.184.04-.634.646-.499 2.929.112 1.904.416 4.563 1.748 5.667.668.554 1.598.727 2.843.53.605-.096 1.172.33 1.268.952s-.314 1.207-.919 1.308c-1.621.274-2.606.937-2.703 1.823-.102.938.79 2.302 2.69 3.11z"/></svg>
